public/assets/flags/4x3/is.svg

<?xml version="1.0" encoding="UTF-8" standalone="no"?>
<!-- Created with Sodipodi ("http://www.sodipodi.com/") -->
<svg id="islenskifaninn" xmlns:rdf="http://www.w3.org/1999/02/22-rdf-syntax-ns#" xmlns="http://www.w3.org/2000/svg" height="480" width="640" version="1" y="0" x="0" xmlns:cc="http://creativecommons.org/ns#" xmlns:dc="http://purl.org/dc/elements/1.1/">
 <metadata id="metadata4595">
  <rdf:RDF>
   <cc:Work rdf:about="">
    <dc:format>image/svg+xml</dc:format>
    <dc:type rdf:resource="http://purl.org/dc/dcmitype/StillImage"/>
   </cc:Work>
  </rdf:RDF>
 </metadata>
 <defs id="defs380">
  <clipPath id="clipPath3901" clipPathUnits="userSpaceOnUse">
   <rect id="rect3903" fill-opacity="0.67" height="480" width="640" y="0" x="0"/>
  </clipPath>
 </defs>
 <g id="flag" fill-rule="evenodd" stroke-width="0pt" clip-path="url(#clipPath3901)">
  <rect id="blarfeldur" height="480" width="666.67" y="0" x="0" fill="#003897"/>
  <path id="hviturkross" fill-cmyk="(0 0 0 0)" d="m0 186.67h186.67v-186.67h106.67v186.67h373.33v106.67h-373.33v186.67h-106.67v-186.67h-186.67v-106.67z" fill="#fff"/>
  <path id="raudurkross" d="m0 213.33h213.33v-213.33h53.333v213.33h400v53.333h-400v213.33h-53.333v-213.33h-213.33v-53.333z" fill="#d72828"/>
 </g>
</svg>

<svg xmlns="http://www.w3.org/2000/svg" height="480" width="640" version="1"><defs><clipPath id="a"><path fill-opacity=".67" d="M0 0h640v480H0z"/></clipPath></defs><g fill-rule="evenodd" stroke-width="0" clip-path="url(#a)"><path fill="#003897" d="M0 0h666.67v480H0z"/><path d="M0 186.67h186.67V0h106.67v186.67h373.33v106.67H293.34v186.67H186.67V293.34H0V186.67z" fill="#fff"/><path d="M0 213.33h213.33V0h53.333v213.33h400v53.333h-400v213.33H213.33v-213.33H0V213.33z" fill="#d72828"/></g></svg>
